X: 1
T: The Rothesay Rant
T: 4 x 32J 4C square set (Birmingham)
P: The Rothesay Rant
R: jig
C: from an arrangement by Peter Bagger Nielsen (www.mandagsorkestret.dk)
C: arr. T. Traub 6-30-2007
M: 6/8
L: 1/8
K: G
|: GBd| "G"e2 d ^c2 d|"G"B3 GBd|"G"e2 d ^c2 d|"D7"c3-c3|"D7"f3 e3|"D7"f3 e3| [1 "D7"f2 e d^c=c|"G"B3 :| [2 "D"d^cd def|"G"g3 gf=f ||
"C" e3 ^d2 e|"C"G3-G3|"C"GAB "Cdim"cBA|"G"B3-B3|"Dm"f3 e2 f|"G"G3-G3|"G7"G^FG Bcd|"C"e3-e3||
"C"e3 ^d2 e|"C"G3 GAB|"C7"c2 c cde|"F"f3 A3|"F"A^GA "Fm"e2 d|"C"cBc "D"d2 c|"G7"B^AB e2 d| "C"c3 c3 ||

